icons/svg/24x24/refresh/outline.svg

<svg width="24" height="24" fill="none" xmlns="http://www.w3.org/2000/svg">
  <path fill-rule="evenodd" clip-rule="evenodd" d="M21 10V2l-3.082 3.082a5.203 5.203 0 00-1.944-.873 20.309 20.309 0 00-8.517 0 5.238 5.238 0 00-4.004 4.004A20.15 20.15 0 003 12.471c0 1.435.152 2.869.453 4.258a5.237 5.237 0 004.003 4.004 20.167 20.167 0 008.517 0 5.237 5.237 0 004.005-4.004 1 1 0 00-1.956-.421 3.229 3.229 0 01-2.472 2.47c-2.5.54-5.167.541-7.671 0a3.23 3.23 0 01-2.471-2.471 18.219 18.219 0 010-7.672A3.231 3.231 0 017.88 6.164a18.336 18.336 0 017.672 0c.33.071.639.196.924.36L13 10h8z" fill="#000"/>
</svg>

<svg xmlns="http://www.w3.org/2000/svg" width="24" height="24" viewBox="0 0 24 24">
  <path fill-rule="evenodd" d="M21,10 L21,2 L17.918,5.082 C17.345,4.669 16.688,4.363 15.974,4.209 C13.194,3.607 10.236,3.607 7.457,4.209 C5.457,4.642 3.886,6.213 3.453,8.213 C3.152,9.603 3,11.035 3,12.471 C3,13.906 3.152,15.34 3.453,16.729 C3.886,18.729 5.457,20.301 7.456,20.733 C8.847,21.034 10.279,21.187 11.715,21.187 C13.151,21.187 14.584,21.034 15.973,20.733 C17.974,20.301 19.545,18.729 19.978,16.729 C20.094,16.19 19.751,15.658 19.211,15.541 C18.672,15.426 18.14,15.768 18.022,16.308 C17.756,17.542 16.785,18.512 15.55,18.778 C13.05,19.318 10.383,19.319 7.879,18.778 C6.645,18.512 5.675,17.542 5.408,16.307 C5.138,15.056 5,13.765 5,12.471 C5,11.178 5.138,9.887 5.408,8.635 C5.675,7.4 6.645,6.431 7.88,6.164 C10.383,5.623 13.049,5.623 15.552,6.164 C15.882,6.235 16.191,6.36 16.476,6.524 L13,10 L21,10 Z"/>
</svg>
